outputs/icons/enterprise/contactless_pay_round.svg

<svg xmlns="http://www.w3.org/2000/svg" width="1200" height="1200" fill="none"><path fill="#000" fill-rule="evenodd" d="M813 1097.57c-16.275-4.65-32.775-23.75-36.24-41.99-2.255-11.875.495-20.1 17.825-53.025C864.29 869.55 894.59 747.165 894.59 598.615c0-143.592-26.815-255.289-93.45-389.193-14.32-28.73-26.005-55.43-26.005-59.278 0-14.257 12.08-34.901 25.17-42.968 17.945-11.113 48.025-9.043 62.42 4.298 5.525 5.116 19.925 28.397 31.945 51.716 48.21 93.954 80.785 194.944 96.48 299.098 9.905 65.252 11.885 188.922 3.96 248.667-14.71 110.195-44.22 208.555-91.43 304.86-28.535 58.24-46.46 82.185-61.39 82.185-3.68.115-7.33.67-10.87 1.66-2.99.88-11.23 0-18.3-2.05zM618.93 997.435c-24.975-7.165-42.955-37.34-35.65-59.98 1.745-5.485 13.51-30.72 26.125-56.07 53.465-107.42 75.605-222.52 64.715-335.585-8.95-92.867-25.745-151.44-68.34-237.143-28.52-57.498-29.845-66.405-13.27-89.569 15.845-22.011 55.135-25.584 75.825-6.874 14.32 12.969 58.895 104.764 76.105 156.755 56.935 172.046 48.24 356.751-24.735 525.756-37.365 86.6-63.605 113.275-100.68 102.71zm-200.016-101.56a60.25 60.25 0 0 1-20.548-15.995 59.2 59.2 0 0 1-11.751-23.065c-2.218-9.885 1.564-20.82 19.803-57.365 67.213-134.255 67.946-263.55 2.219-394.662-28.853-57.596-29.488-69.061-5.09-91.795 12.04-11.191 17.169-13.183 34.082-13.183 28.378 0 43.092 14.062 68.461 65.428 38.99 79.023 54.975 147.577 54.835 235.387-.14 90.275-15.07 152.245-56.735 235.56-23.865 47.715-35.649 60.295-59.551 63.535a56.55 56.55 0 0 1-25.744-3.785zm-186.725-94.59c-12.219-4.98-26.18-21.365-30.319-35.645-4.614-15.915-.852-28.55 17.506-58.3 23.586-38.26 29.072-58.785 29.072-108.785s-5.486-70.525-29.072-108.788c-7.921-12.968-16.021-28.495-17.823-34.53-7.605-25.214 13.705-56.111 42.32-61.405 24.259-4.491 40.913 6.192 63.212 40.527 64.559 99.391 64.559 232.181 0 330.756-22.773 34.765-48.181 47.05-74.837 36.17z"/></svg>

<svg width="1200" height="1200" viewBox="0 0 1200 1200" fill="none" xmlns="http://www.w3.org/2000/svg"><path fill-rule="evenodd" d="M813 1097.57C796.725 1092.92 780.225 1073.82 776.76 1055.58C774.505 1043.705 777.255 1035.48 794.585 1002.555C864.29 869.55 894.59 747.165 894.59 598.615C894.59 455.023 867.775 343.326 801.14 209.422C786.82 180.692 775.135 153.992 775.135 150.144C775.135 135.887 787.215 115.243 800.305 107.176C818.25 96.063 848.33 98.133 862.725 111.474C868.25 116.59 882.65 139.871 894.67 163.19C942.88 257.144 975.455 358.134 991.15 462.288C1001.055 527.54 1003.035 651.21 995.11 710.955C980.4 821.15 950.89 919.51 903.68 1015.815C875.145 1074.055 857.22 1098 842.29 1098C838.61 1098.115 834.96 1098.67 831.42 1099.66C828.43 1100.54 820.19 1099.66 813.12 1097.61L813 1097.57ZM618.93 997.435C593.955 990.27 575.975 960.095 583.28 937.455C585.025 931.97 596.79 906.735 609.405 881.385C662.87 773.965 685.01 658.865 674.12 545.8C665.17 452.933 648.375 394.36 605.78 308.657C577.26 251.159 575.935 242.252 592.51 219.088C608.355 197.077 647.645 193.504 668.335 212.214C682.655 225.183 727.23 316.978 744.44 368.969C801.375 541.015 792.68 725.72 719.705 894.725C682.34 981.325 656.1 1008 619.025 997.435H618.93ZM418.914 895.875C410.962 892.09 403.947 886.63 398.366 879.88C392.786 873.135 388.774 865.26 386.615 856.815C384.397 846.93 388.179 835.995 406.418 799.45C473.631 665.195 474.364 535.9 408.637 404.788C379.784 347.192 379.149 335.727 403.547 312.993C415.587 301.802 420.716 299.81 437.629 299.81C466.007 299.81 480.721 313.872 506.09 365.238C545.08 444.261 561.065 512.815 560.925 600.625C560.785 690.9 545.855 752.87 504.19 836.185C480.325 883.9 468.541 896.48 444.639 899.72C435.875 900.475 427.054 899.18 418.895 895.935L418.914 895.875ZM232.189 801.285C219.97 796.305 206.009 779.92 201.87 765.64C197.256 749.725 201.018 737.09 219.376 707.34C242.962 669.08 248.448 648.555 248.448 598.555C248.448 548.555 242.962 528.03 219.376 489.767C211.455 476.799 203.355 461.272 201.553 455.237C193.948 430.023 215.258 399.126 243.873 393.832C268.132 389.341 284.786 400.024 307.085 434.359C371.644 533.75 371.644 666.54 307.085 765.115C284.312 799.88 258.904 812.165 232.248 801.285H232.189Z" fill="black"/></svg>
